X:168
T:Polorum Regina
C:Livre Vermeil de Montserrat (XIVème siècle)
R:Livre
M:3/4
L:1/8
Q:1/4=240
K:C 
V:1
% Staff
c4c2 | e4f2 | g4g2 | g4a2 | 
b2c'4 | c'ba2bg | g6- | g4-gz | 
f4e2 | f3 ag2 | f4e2 | d4c2 | 
e4g2 | edc4 | c6 | f4e2 | 
f2a4 | f4e2 | d4c2 | e4g2 | 
edc4 | f4e2 | f2a4 | f4e2 | 
d4c2 | e4g2 | edc4 | c4c2 | 
e4f2 | g4g2 | g4ab | c'4c'b | 
a4bg | g6- | g4-gz | f4e2 | 
f3 ag2 | f4e2 | d4c2 | e4g2 | 
edc4- | c6 |]
V:2
% Staff-1
%   ;  
% By Unregistered User
% Copyright \0za9 2000 by NoteWorthy ArtWare, Inc.
% All Rights Reserved
% Generated by NoteWorthy Composer
C4C2 | E4F2 | G4G2 | G4A2 | 
B2c4 | cBA2BG | G6- | G4-Gz | 
F4E2 | F3 AG2 | F4E2 | D4C2 | 
E4G2 | EDC4 | C4-C3/2z/2 | z6 | 
z6 | z6 | z6 | z6 | 
z6 | z6 | z6 | z6 | 
z6 | z6 | z6 | C6 | 
E6 | G6- | G4-Gz | c6 | 
A6 | G6- | G4-Gz | F6- | 
F4-Fz | F6 | D6 | E6 | 
C6- | C6 |]
V:3
% Staff-2
%   ;  
% By Unregistered User
% Copyright \0za9 2000 by NoteWorthy ArtWare, Inc.
% All Rights Reserved
% Generated by NoteWorthy Composer
C,4C,2 | E,4F,2 | G,4G,2 | G,4A,2 | 
B,2C4 | CB,A,2B,G, | G,6- | G,4-G,z | 
F,4E,2 | F,3 A,G,2 | F,4E,2 | D,4C,2 | 
E,4G,2 | E,D,C,4 | C,6 | C,6- | 
C,6- | C,6- | C,6 | C,6- | 
C,6- | C,6- | C,4-C,z | C,6- | 
C,6- | C,6- | C,6 | C,6- | 
C,6- | C,6- | C,6 | C,6- | 
C,6- | C,6- | C,6 | C,6- | 
C,6- | C,6- | C,6 | C,6- | 
C,6- | C,6- | C,4-C, |]
V:4 clef=perc stafflines=1 staffscale=0.8
% Staff-3
B4B2 | B4B2 | B4B2 | B4B2 | 
B2B4 | B4B2 | B6 | B2B2B2 | 
B4B2 | B4B2 | B4B2 | B4B2 | 
B4B2 | B6 | B2B2B2 | B6 | 
z6 | B6 | z6 | B6 | 
z6 | B6 | z6 | B6 | 
z6 | B6 | z6 | B6 | 
z6 | B6 | z6 | B6 | 
z6 | B6 | B2B2B2 | B6 | 
z6 | B6 | z6 | B6 | B6 | z6|]





